X: 188
T: Off to Donnybrook
T: Jig, G
L: 1/16
M: 6/8
K: G
|: E2| D2G2G2 B2G2B2| A2G2G2 G2B2d2| e2g2e2 d2B2G2| A2G2A2 B2G2E2|
 D2G2G2 B2G2B2| A2G2G2 G2B2d2| e2g2e2 d2B2A2| [1 B2G2G2 G4:| [2 B2G2G2 G6]|
|: g2f2g2 e2f2g2| e2d2B2 d2e2f2| g6 e2a2g2| f2d2d2 d2e2f2|
 g2f2g2 e2f2g2| e2d2B2 d2e2f2| g2d2B2 A2G2A2| [1 B2G2G2 G6:| [2 B2G2G2 G4]| 
D: Mike MacDougall, Tape for Fr. Hector
